X: 4
T: The Sweetness Of Mary
R: strathspey
M: 4/4
L: 1/8
K: Gmaj
(3EAB|c2 (3cBA F2 (3FAB|c>e d<f e2 (3efg|a>gf>e e>dc>d|e<a c>A B2 A>B|c2 (3cBA F2 (3FAB|c>e d<f e2 (3efg|a>gf>e e>dc>d|e<a c>B A2:|


Tune 802	Setting 29082

